X:1
C: W. Turner
M: none
L:1/2
%%staves [(1 2) (3 4)]
K:C
V:1 clef=treble
C'2 | A G | ^F2 || G2 | G C' | C' B | C'2 |]
V:2 clef=treble
E2 | C ^C | D2 || D2 | C/2 D/2 E/2 F/2 | G>F | E2 |]
V:3 clef=bass octave=-1
A2 | B C' | C'2 || C'2 | B F | G G | A2 |]
V:4 clef=bass octave=-1
A2 | G F | C2 || F2 | B, D | C C | F2 |]
